src/static/logos/puppet-icon.svg

<?xml version="1.0" encoding="UTF-8"?>
<svg width="256px" height="395px" viewBox="0 0 256 395" version="1.1" xmlns="http://www.w3.org/2000/svg" xmlns:xlink="http://www.w3.org/1999/xlink" preserveAspectRatio="xMidYMid">
    <g>
        <path d="M39.2326379,354.95323 L78.4652758,354.95323 L78.4652758,315.71801 L39.2326379,315.71801 L39.2326379,354.95323 Z M39.2352205,78.4652758 L78.4652758,78.4652758 L78.4652758,39.2352205 L39.2352205,39.2352205 L39.2352205,78.4652758 Z M256,255.943182 L256,138.242686 L165.985231,138.242686 L166.013639,138.214277 L117.700496,89.9011339 L117.700496,0 L0,0 L0,117.700496 L90.0147694,117.700496 L138.271095,165.956822 L138.299504,165.928413 L138.299504,228.257455 L138.242686,228.200638 L89.9579517,276.485372 L0,276.485372 L0,394.185868 L117.700496,394.185868 L117.700496,304.227917 L165.985231,255.943182 L256,255.943182 L256,255.943182 Z" fill="#EFA732"></path>
    </g>
</svg>

<svg width="256" height="395" xmlns="http://www.w3.org/2000/svg" preserveAspectRatio="xMidYMid"><path d="M39.233 354.953h39.232v-39.235H39.233v39.235zm.002-276.488h39.23v-39.23h-39.23v39.23zM256 255.943v-117.7h-90.015l.029-.029L117.7 89.901V0H0v117.7h90.015l48.256 48.257.029-.029v62.33l-.057-.057-48.285 48.284H0v117.7h117.7v-89.957l48.285-48.285H256z" fill="#EFA732"/></svg>
